X:77
%%etbk:tnset id:26,pos:2,rep:3x,ant:
%%etbk:wsite http://www.thesession.org/tunes/display/384
%%etbk:pldat 2014-12-17T18:31,2014-04-27T14:42,2013-08-27T18:43,2013-04-30T16:18
T: Dublin, The
Z: Piano Box Version by Martin Fleischmann
H: Created 2013-02-19 /  Last Modified 2013-02-19
M: 4/4
L: 1/8
R: reel
K: Dmaj
|: "D"!5!d!2!FF{A}F !5!d!2!F!5!e!2!F | !5!d!2!FF{A}F !3!A!2!F!1!E!2!F | !5!d2!3!dc !3!d!5!fed | "A"!2!c!1!A!2!B!1!G !4!A!2!F!1!E!2!F :|
|: "A"!5!e!1!A !3!(3A!2!A!1!A !5!e!1!A!5!f!1!A | !5!e!1!A !3!(3A!2!A!1!A !2!B!1!A!2!F!1!A | !5!e2!2!ed !2!e!4!gfe | !1!d!2!B!3!c!1!A {d}!2!B!1!A!2!F!1!A :|
|: "D"!4!d3c !4!d!1!A!2!F!1!A | !4!dcd!1!A !2!F!1!D!2!F!1!A |1 !4!d2!4!d!3!c !1!d!3!fe!1!d | "A"!3!c!1!A!2!B!1!G !4!A!2!F!1!E!2!F :|2 !4!d2!1!d!3!f "A"!2!e3!4!g| !3!f!1!d!2!Bc "D"!4!d4||


